X: 6751
T: Chandelier, The
R: reel
M: 4/4
K: Dmajor
|:D2 D2 ADFG|A2FA dfed|Bg g2 gfed|(3cBA ed cAGE|
D2 D2 ADFG|A2FA dfed|cAAB cAed|1 cAGE F3E:|2 cAGE FABc||
|:dfbf afeg|f3d eABc|dfbf afeg|fedB cdeg|
f3e de (3fed|eA A2 ABcA|B2GF GBdB|1 AFEG FABc:|2 AFEG F3E||

